SVG-Icons/Socials/twitter-blue-gradient.svg

<svg width="22" height="19" viewBox="0 0 22 19" fill="none" xmlns="http://www.w3.org/2000/svg">
<path fill-rule="evenodd" clip-rule="evenodd" d="M10.8835 5.41353L10.9287 6.15846L10.1758 6.06724C7.43513 5.71758 5.04081 4.53178 3.00789 2.54023L2.01403 1.55206L1.75803 2.28179C1.21592 3.90847 1.56227 5.62636 2.69166 6.78176C3.29401 7.42027 3.15848 7.51149 2.11944 7.13142C1.75803 7.0098 1.4418 6.91859 1.41168 6.96419C1.30627 7.07061 1.66768 8.45405 1.95379 9.00135C2.34531 9.76148 3.14342 10.5064 4.01682 10.9473L4.75469 11.2969L3.88129 11.3121C3.03801 11.3121 3.00789 11.3273 3.09825 11.6466C3.39942 12.6348 4.58905 13.6838 5.91421 14.1398L6.84784 14.4591L6.03468 14.9456C4.82999 15.6449 3.41448 16.0402 1.99897 16.0706C1.32133 16.0858 0.76416 16.1466 0.76416 16.1922C0.76416 16.3442 2.60131 17.1956 3.67047 17.53C6.87796 18.5182 10.6878 18.0925 13.5489 16.405C15.5818 15.204 17.6148 12.8172 18.5634 10.5064C19.0754 9.27499 19.5874 7.025 19.5874 5.94562C19.5874 5.2463 19.6326 5.15508 20.4759 4.31894C20.9728 3.83245 21.4396 3.30036 21.53 3.14834C21.6806 2.85949 21.6655 2.85949 20.8975 3.11793C19.6175 3.57401 19.4368 3.5132 20.0693 2.82908C20.5361 2.3426 21.0933 1.46085 21.0933 1.2024C21.0933 1.15679 20.8674 1.23281 20.6114 1.36963C20.3404 1.52166 19.738 1.7497 19.2863 1.88652L18.4731 2.14496L17.7352 1.64328C17.3286 1.36963 16.7564 1.06558 16.4552 0.974362C15.6872 0.761525 14.5127 0.791931 13.82 1.03517C11.9377 1.71929 10.748 3.48279 10.8835 5.41353Z" fill="url(#paint0_linear_652_2571)"/>
<defs>
<linearGradient id="paint0_linear_652_2571" x1="-8.28189" y1="-18.6762" x2="35.867" y2="18.1543" gradientUnits="userSpaceOnUse">
<stop stop-color="#3D65AF"/>
<stop offset="0.187557" stop-color="#2372B8"/>
<stop offset="0.609939" stop-color="#00B8BB"/>
</linearGradient>
</defs>
</svg>

<svg xmlns="http://www.w3.org/2000/svg" fill="none" viewBox="0 0 22 19"><path fill="url(#a)" fill-rule="evenodd" d="m10.883 5.414.046.744-.753-.09c-2.74-.35-5.135-1.536-7.168-3.528l-.994-.988-.256.73c-.542 1.626-.196 3.344.934 4.5.602.638.466.73-.573.35-.361-.122-.677-.213-.707-.168-.106.107.256 1.49.542 2.037.391.76 1.19 1.505 2.063 1.946l.738.35-.874.015c-.843 0-.873.015-.783.335.301.988 1.491 2.037 2.816 2.493l.934.32-.813.486a8.478 8.478 0 0 1-4.036 1.125c-.678.015-1.235.076-1.235.121 0 .152 1.837 1.004 2.906 1.338 3.208.988 7.018.563 9.879-1.125 2.033-1.201 4.066-3.588 5.014-5.899.512-1.231 1.024-3.481 1.024-4.56 0-.7.046-.79.889-1.627.497-.487.964-1.019 1.054-1.17.15-.29.136-.29-.633-.031-1.28.456-1.46.395-.828-.289.467-.486 1.024-1.368 1.024-1.627 0-.045-.226.03-.482.168-.27.152-.873.38-1.325.517l-.813.258-.738-.502c-.406-.273-.979-.577-1.28-.669-.768-.212-1.942-.182-2.635.061-1.882.684-3.072 2.448-2.937 4.379Z" clip-rule="evenodd"/><defs><linearGradient id="a" x1="-8.282" x2="35.867" y1="-18.676" y2="18.154" gradientUnits="userSpaceOnUse"><stop stop-color="#3D65AF"/><stop offset=".188" stop-color="#2372B8"/><stop offset=".61" stop-color="#00B8BB"/></linearGradient></defs></svg>
